X:1512
T:Waverley/Fergus McIver
P:The Lawland Lads Think They Are Fine
C:Traditional (Surenne)
R:Jig (8x48) ABABAB
B:RSCDS 15-12
Z:Anselm Lingnau <anselm@strathspey.org>
M:6/8
L:1/8
K:C
C|"C"C>DC E>FE|"G"G>AG e2 d|"C"cGE "F"F>GA |"C"G>cE "G7"EDC|
  "C"C>DC "G"GAG|"C"c>dc "Dm"g2 f|"C"ecG "F"A>Bc|"G7"G>AG "C"E<C||
G|"C"E2 F G2 c|e>dc "G7"dGF|"C"E2 e edc|"D"B2 c "G"dGF|
  "C"E2 c "F"cBA|"C"E2f "(G7)"e2 d|"C"ecG "F"A>Bc|"G7"G>AG "C"E<C|]
